svgs/regular/arrows-minimize.svg

<svg xmlns="http://www.w3.org/2000/svg" viewBox="0 0 512 512"><!--! Font Awesome Pro 6.0.0-alpha3 by @fontawesome - https://fontawesome.com License - https://fontawesome.com/license (Commercial License) --><path d="M200 32C186.8 32 176 42.75 176 56v86.06L56.97 23.03c-9.375-9.375-24.56-9.375-33.94 0s-9.375 24.56 0 33.94L142.1 176H56C42.75 176 32 186.8 32 200s10.8 24.06 24.05 24.06L200 224c3.135 0 6.248-.6406 9.182-1.855c5.861-2.434 10.53-7.109 12.96-12.97C223.4 206.2 224 203.1 224 200l.0549-143.9C224.1 42.81 213.3 32 200 32zM302.8 222.1C305.8 223.4 308.9 224 312 224l143.9 .0576C469.2 224.1 480 213.3 480 200S469.3 176 456 176h-86.06l119-119c9.375-9.375 9.375-24.56 0-33.94s-24.56-9.375-33.94 0L336 142.1V56C336 42.75 325.3 32 312 32s-24.05 10.81-24.05 24.06L288 200c0 3.133 .6406 6.25 1.855 9.18C292.3 215 296.1 219.7 302.8 222.1zM369.9 336H456c13.25 0 24-10.75 24-24s-10.81-24.06-24.06-24.06L312 288c-3.135 0-6.248 .6406-9.182 1.855c-5.861 2.434-10.53 7.109-12.96 12.97C288.6 305.8 288 308.9 288 312l-.0567 143.9C287.9 469.2 298.8 480 312 480s24-10.75 24-24v-86.06l119 119c9.375 9.375 24.56 9.375 33.94 0s9.375-24.56 0-33.94L369.9 336zM209.2 289.9C206.2 288.6 203.1 288 200 288L56.06 287.9C42.81 287.9 32 298.8 32 312s10.75 24 24 24h86.06l-119 119c-9.375 9.375-9.375 24.56 0 33.94s24.56 9.375 33.94 0L176 369.9V456C176 469.3 186.8 480 200 480s24.06-10.81 24.06-24.06L224 312c0-3.133-.6406-6.25-1.855-9.18C219.7 296.1 215 292.3 209.2 289.9z"/></svg>

<svg xmlns="http://www.w3.org/2000/svg" viewBox="0 0 512 512"><!-- Font Awesome Pro 6.0.0-alpha2 by @fontawesome - https://fontawesome.com License - https://fontawesome.com/license (Commercial License) --><path d="M200 31.969C186.75 31.969 176 42.719 176 55.969V142.031L56.969 23C47.594 13.625 32.406 13.625 23.031 23S13.656 47.563 23.031 56.938L142.063 175.969H56C42.75 175.969 32 186.719 32 199.969S42.75 223.969 56 223.969H200C203.135 223.969 206.248 223.328 209.182 222.113C215.043 219.68 219.715 215.004 222.146 209.141C223.361 206.207 224 203.094 224 199.969V55.969C224 42.719 213.25 31.969 200 31.969ZM302.828 222.117C305.762 223.328 308.875 223.969 312 223.969H456C469.25 223.969 480 213.219 480 199.969S469.25 175.969 456 175.969H369.938L488.969 56.938C498.344 47.563 498.344 32.375 488.969 23S464.406 13.625 455.031 23L336 142.031V55.969C336 42.719 325.25 31.969 312 31.969S288 42.719 288 55.969V199.969C288 203.102 288.641 206.219 289.855 209.148C292.289 215.012 296.965 219.684 302.828 222.117ZM369.938 335.969H456C469.25 335.969 480 325.219 480 311.969S469.25 287.969 456 287.969H312C308.865 287.969 305.752 288.609 302.818 289.824C296.957 292.258 292.285 296.934 289.854 302.797C288.639 305.73 288 308.844 288 311.969V455.969C288 469.219 298.75 479.969 312 479.969S336 469.219 336 455.969V369.906L455.031 488.938C464.406 498.313 479.594 498.313 488.969 488.938S498.344 464.375 488.969 455L369.938 335.969ZM209.172 289.82C206.238 288.609 203.125 287.969 200 287.969H56C42.75 287.969 32 298.719 32 311.969S42.75 335.969 56 335.969H142.063L23.031 455C13.656 464.375 13.656 479.563 23.031 488.938S47.594 498.313 56.969 488.938L176 369.906V455.969C176 469.219 186.75 479.969 200 479.969S224 469.219 224 455.969V311.969C224 308.836 223.359 305.719 222.145 302.789C219.711 296.926 215.035 292.254 209.172 289.82Z"/></svg>
